build/images/icon/controls.svg

<svg width="34" height="29" viewBox="0 0 34 29" fill="none" xmlns="http://www.w3.org/2000/svg">
<path d="M32.8511 9.76553L8.73057 0.829306C8.42205 0.7153 8.07929 0.873058 7.96553 1.18182C7.96528 1.18207 7.96528 1.18232 7.96503 1.18257L5.29489 8.45071C5.18138 8.75948 5.33964 9.102 5.64841 9.2155H5.64891L8.44481 10.2421L7.82877 11.9204C7.71552 12.2292 7.87378 12.5712 8.18254 12.6847L13.7753 14.738L13.3643 15.8569C12.9908 16.8589 13.3393 17.987 14.2134 18.6032V21.6434H6.19744C5.80942 20.7564 5.01537 20.1123 4.06707 19.9158V18.6648C4.06707 18.3357 3.80056 18.069 3.47129 18.069H1.06941C0.740397 18.069 0.473633 18.3357 0.473633 18.6648V28.1965C0.473633 28.5258 0.740397 28.7923 1.06941 28.7923H3.47129C3.80056 28.7923 4.06707 28.5258 4.06707 28.1965V26.9457C5.01537 26.7489 5.80942 26.1051 6.19744 25.2178H14.2134V25.8136C14.2134 26.8007 15.0134 27.601 16.0005 27.601C16.9875 27.601 17.7878 26.8007 17.7878 25.8136V19.214C18.3293 18.9455 18.7476 18.4797 18.9561 17.9122L19.3671 16.7934L24.4004 18.6403C24.4662 18.6645 24.5354 18.6768 24.6054 18.6768C24.8552 18.6768 25.0787 18.521 25.1649 18.2865L25.3882 17.6782C27.3268 18.043 29.1939 16.7672 29.5584 14.8288C29.6932 14.1125 29.6057 13.3722 29.3077 12.7072L32.9191 10.8528C33.2119 10.7028 33.3276 10.3438 33.1776 10.051C33.1096 9.91804 32.9941 9.81553 32.8541 9.76378L32.8511 9.76553ZM15.4047 19.146L15.898 19.3248C16.1225 19.4053 16.358 19.4515 16.5962 19.4618V21.6434H15.4047V19.146ZM2.87576 27.601H1.6652V19.2605H2.87576V27.601ZM5.25864 24.0265C5.25764 24.7836 4.78061 25.4584 4.06707 25.7119V21.1496C4.78061 21.4029 5.25764 22.0777 5.25864 22.835V24.0265ZM6.4687 22.835H16.5962V24.0265H6.4687V22.835ZM16.0005 26.4094C15.6714 26.4094 15.4047 26.1426 15.4047 25.8136V25.2178H16.5962V25.8136C16.5962 26.1426 16.3295 26.4094 16.0005 26.4094ZM18.2488 16.3831L17.8378 17.5019C17.6108 18.119 16.9265 18.4355 16.309 18.209L15.1884 17.7985C14.5709 17.5717 14.2539 16.8872 14.4806 16.2694C14.4806 16.2694 14.4806 16.2694 14.4806 16.2691L14.8919 15.1511L17.9116 16.2596L18.2488 16.3831ZM24.2521 17.3184L9.15234 11.7736L9.56361 10.6548L18.5111 13.9405C18.7229 14.0175 18.9604 13.9693 19.1251 13.8152L20.797 12.2414L25.4842 13.963L24.2521 17.3184ZM28.2801 14.9901C27.9026 16.0079 26.8873 16.6439 25.807 16.5391L26.7275 14.0315L28.2311 13.2572C28.4664 13.8077 28.4839 14.4273 28.2801 14.9901ZM26.2693 12.9302C26.2377 12.9329 26.2065 12.9384 26.1757 12.9467L20.8642 10.9963C20.6525 10.9186 20.4149 10.9668 20.2504 11.1214L18.5766 12.6954L6.61871 8.3042L8.87733 2.15438L31.1675 10.4126L26.2693 12.9302Z" fill="#E3B873"/>
<path d="M12.1292 8.70337L11.6038 10.1233M14.419 9.5434L13.8935 10.9633M16.641 10.3699L16.1155 11.7898" stroke="#E3B873" stroke-linecap="round"/>
</svg>

<svg width="34" height="29" fill="none" xmlns="http://www.w3.org/2000/svg"><path d="M32.851 9.766L8.731.829a.595.595 0 00-.765.353h-.001l-2.67 7.269a.596.596 0 00.353.764l2.797 1.027-.616 1.678a.596.596 0 00.354.765l5.592 2.053-.41 1.119a2.354 2.354 0 00.848 2.746v3.04H6.197a2.987 2.987 0 00-2.13-1.727v-1.251a.596.596 0 00-.596-.596H1.07a.596.596 0 00-.595.596v9.532c0 .329.266.595.595.595h2.402c.33 0 .596-.266.596-.596v-1.25a2.987 2.987 0 002.13-1.728h8.016v.596a1.787 1.787 0 103.575 0v-6.6a2.36 2.36 0 001.168-1.302l.411-1.119L24.4 18.64a.593.593 0 00.765-.354l.223-.608a3.571 3.571 0 003.92-4.97l3.611-1.855a.596.596 0 00-.065-1.09l-.003.003zm-17.446 9.38l.493.179c.224.08.46.127.698.137v2.181h-1.191v-2.497zm-12.53 8.455h-1.21v-8.34h1.21v8.34zm2.384-3.575a1.791 1.791 0 01-1.192 1.686V21.15a1.79 1.79 0 011.192 1.685v1.191zm1.21-1.191h10.127v1.191H6.47v-1.191zM16 26.409a.596.596 0 01-.595-.595v-.596h1.191v.596a.596.596 0 01-.596.595zm2.249-10.026l-.411 1.119a1.192 1.192 0 01-1.529.707l-1.12-.41a1.192 1.192 0 01-.708-1.53l.41-1.118 3.02 1.109.338.123zm6.003.935l-15.1-5.544.412-1.12 8.947 3.287a.6.6 0 00.614-.126l1.672-1.574 4.687 1.722-1.232 3.355zm4.028-2.328a2.392 2.392 0 01-2.473 1.55l.92-2.508 1.504-.775c.235.55.253 1.17.05 1.733zm-2.01-2.06a.534.534 0 00-.094.017l-5.312-1.95a.596.596 0 00-.614.124l-1.673 1.574-11.958-4.39 2.258-6.15 22.29 8.258-4.898 2.517z" fill="#E3B873"/><path d="M12.13 8.703l-.526 1.42m2.815-.58l-.526 1.42m2.748-.593l-.525 1.42" stroke="#E3B873" stroke-linecap="round"/></svg>
